Obsidian-SemiLight/actions/22s/coordinate.svg

<svg viewBox="0 0 22 22" xmlns="http://www.w3.org/2000/svg"><path d="m7 3v11 .208984l-5.078125 5.080078s.6796631.710328.6894531.710938c0 0 4.0200844-4.008369 5.0214844-5.011719l11.3671875.011719v-1h-11v-11z" fill="#4d4d4d"/></svg>

<svg xmlns="http://www.w3.org/2000/svg" viewBox="0 0 22 22">
  <defs id="defs3051">
    <style type="text/css" id="current-color-scheme">
      .ColorScheme-Text {
        color:#4d4d4d;
      }
      </style>
  </defs>
 <path 
     style="fill:currentColor;fill-opacity:1;stroke:none" 
	 d="M 7 3 L 7 14 L 7 14.208984 L 1.921875 19.289062 C 1.921875 19.289062 2.6015381 19.99939 2.6113281 20 C 2.6113281 20 6.6314125 15.991631 7.6328125 14.988281 L 19 15 L 19 14 L 8 14 L 8 3 L 7 3 z "
	 class="ColorScheme-Text"
     />
</svg>
